X:1
T:Addis Ababa, 87.87 D
T:Addis Ababa, 87.87 D
T:Isaac Hickman Meredith, 1893
T:Public Domain Courtesy of the Cyber Hymnal™
C:Isaac Hickman Meredith, 1893
Z:Public Domain
Z:Courtesy of the Cyber Hymnal™
%%score ( 1 2 ) ( 3 4 )
L:1/8
Q:1/4=105
M:4/4
K:Ab
V:1 treble 
V:2 treble 
V:3 bass 
V:4 bass 
V:1
 [Ec]2 [Ec]2 [Ec]>[DB] [CA]>[CE] | [DF]4 [DA]4 | [CE]2 [CA]2 [=DA]>[DA] [DG]>[DA] | [EB]6 z2 | %4
 [Ec]2 [Ec]2 [Ec]>[EA] [EB]>[_Gc] | [Fd]4 [DF]4 | [CE]2 [EA]2 [DA][DG][DF][DG] | [CA]6 z2 | %8
 [Ae]2 [Af]2 [Ae]>[Ac] [EA]>[EB] | [Ec]4 [CE]4 | F2 G2 AGA[FB] | c8 | %12
 [Ed]2 [Ed]2 [Gd]>[Gc] [Gd]>[Gf] | [Ae]4 [Ac]4 | [EA][EB][Ec][Fd] [Ec]2 [DB]2 | [CA]8 |] %16
V:2
 x8 | x8 | x8 | x8 | x8 | x8 | x8 | x8 | x8 | x8 | F2 G2 AGA x | (=E2 F2 E4) | x8 | x8 | x8 | x8 |] %16
V:3
 [A,,A,]2 [A,,A,]2 [A,,A,]>[A,,E,] [A,,E,]>[A,,A,] | [D,A,]4 [D,F,]4 | %2
 [A,,A,]2 [A,,E,]2 [B,,B,]>[B,,B,] [B,,G,]>[B,,F,] | [E,G,]6 z2 | %4
 [A,,A,]2 [A,,A,]2 [A,,A,]>[C,A,] [E,G,]>A, | [D,A,]4 [D,A,]4 | %6
 [E,A,]2 [E,C]2 [E,B,][E,B,][E,A,][E,B,] | [A,,A,]6 z2 | [A,C]2 [A,D]2 [A,C]>[A,E] [C,A,]>[E,G,] | %9
 A,4 [A,,A,]4 | F,2 G,2 A,G,A,[D,B,] | (G,2 A,2 G,4) | %12
 [E,G,]2 [E,G,]2 [E,B,]>[E,=A,] [E,B,]>[E,D] | [A,C]4 [A,E]4 | %14
 [C,A,][E,G,]A,[D,A,] [E,A,]2 [E,G,]2 | [A,,A,]8 |] %16
V:4
 x8 | x8 | x8 | x8 | x15/2 A,/ | x8 | x8 | x8 | x8 | A,4 x4 | F,2 G,2 A,G,A, x | C,8 | x8 | x8 | %14
 x2 A, x5 | x8 |] %16

